X:548
T: Datie ge
N: C1966
O: China,Hunan Hengdong
S: I, 511]
R: Xiaodiao, Dengdiao]
M: 2/4
L: 1/16
K: G
GAGED3E | GAGED4 | G2D4EG | BAGED4 |
B2EGA3B | G2GAD4 | D2D2B,2G2 | D3EBBdB | ABA6 |
A2A4GE | D3EG4 | D3EG2D2 | GAGED4 |
A2A4GE | D3EG4 | D3EGAD2 | GAGED4 |
B2GGA4 | G2GGA4 | GGDED4 | G2GGD4 |
G2z2G2z2 | D2zED4 | B2EGA3B | G2GAD4 | d3ed2AB | d3BABA2- | A8

@@@ Tune index: 7103
